src/lib/packages/icons/src/assets/filled/comment-info.svg

<svg width="24" height="24" viewBox="0 0 24 24" fill="none" xmlns="http://www.w3.org/2000/svg">
<path d="M12 4C7.03 4 3 6.99998 3 12.001C3 14.121 3.72995 15.8919 4.94995 17.2119C4.79995 18.1719 4.25992 19.2721 3.16992 20.1521C2.83992 20.4321 3.02996 20.9819 3.45996 20.9919C4.87996 21.0419 7.06991 20.8521 8.40991 19.4221C9.50991 19.8021 10.72 20.002 12 20.002C16.97 20.002 21 17.002 21 12.001C21 6.99998 16.97 4 12 4ZM12.75 15C12.75 15.414 12.414 15.75 12 15.75C11.586 15.75 11.25 15.414 11.25 15V12C11.25 11.586 11.586 11.25 12 11.25C12.414 11.25 12.75 11.586 12.75 12V15ZM12.02 10C11.468 10 11.0149 9.552 11.0149 9C11.0149 8.448 11.458 8 12.01 8H12.02C12.573 8 13.02 8.448 13.02 9C13.02 9.552 12.572 10 12.02 10Z" fill="currentColor"/>
</svg>

<svg xmlns="http://www.w3.org/2000/svg" width="24" height="24" fill="none"><path fill="currentColor" d="M12 4c-4.97 0-9 3-9 8.001 0 2.12.73 3.89 1.95 5.21-.15.96-.69 2.061-1.78 2.941-.33.28-.14.83.29.84 1.42.05 3.61-.14 4.95-1.57 1.1.38 2.31.58 3.59.58 4.97 0 9-3 9-8.001C21 7 16.97 4 12 4Zm.75 11a.75.75 0 0 1-1.5 0v-3a.75.75 0 0 1 1.5 0v3Zm-.73-5a1.005 1.005 0 0 1-1.005-1c0-.552.443-1 .995-1h.01a1 1 0 1 1 0 2Z"/></svg>
